resources/icons/20px/array.svg

<?xml version="1.0" encoding="UTF-8"?>
<svg width="20px" height="20px" viewBox="0 0 20 20" version="1.1" xmlns="http://www.w3.org/2000/svg" xmlns:xlink="http://www.w3.org/1999/xlink">
    <title>icon-array</title>
    <g stroke-width="1" fill-rule="evenodd">
        <path d="M19,0 C19.5128358,0 19.9355072,0.38604019 19.9932723,0.883378875 L20,1 L20,19 C20,19.5128358 19.6139598,19.9355072 19.1166211,19.9932723 L19,20 L15,20 C14.4477153,20 14,19.5522847 14,19 C14,18.4871642 14.3860402,18.0644928 14.8833789,18.0067277 L15,18 L18,18 L18,2 L15,2 C14.4871642,2 14.0644928,1.61395981 14.0067277,1.11662113 L14,1 C14,0.487164161 14.3860402,0.0644928393 14.8833789,0.00672773132 L15,0 L19,0 Z M5,0 C5.55228475,0 6,0.44771525 6,1 C6,1.51283584 5.61395981,1.93550716 5.11662113,1.99327227 L5,2 L2,2 L2,18 L5,18 C5.51283584,18 5.93550716,18.3860402 5.99327227,18.8833789 L6,19 C6,19.5128358 5.61395981,19.9355072 5.11662113,19.9932723 L5,20 L1,20 C0.487164161,20 0.0644928393,19.6139598 0.00672773133,19.1166211 L0,19 L0,1 C0,0.487164161 0.38604019,0.0644928393 0.883378875,0.00672773133 L1,0 L5,0 Z M10,9 C10.5522847,9 11,9.44771525 11,10 C11,10.5522847 10.5522847,11 10,11 C9.44771525,11 9,10.5522847 9,10 C9,9.44771525 9.44771525,9 10,9 Z M6,9 C6.55228475,9 7,9.44771525 7,10 C7,10.5522847 6.55228475,11 6,11 C5.44771525,11 5,10.5522847 5,10 C5,9.44771525 5.44771525,9 6,9 Z M14,9 C14.5522847,9 15,9.44771525 15,10 C15,10.5522847 14.5522847,11 14,11 C13.4477153,11 13,10.5522847 13,10 C13,9.44771525 13.4477153,9 14,9 Z"></path>
    </g>
</svg>

<svg xmlns="http://www.w3.org/2000/svg" viewBox="0 0 20 20">
  <path d="M19 0a1 1 0 0 1 .993.883L20 1v18a1 1 0 0 1-.883.993L19 20h-4a1 1 0 0 1-.117-1.993L15 18h3V2h-3a1 1 0 0 1-.993-.883L14 1a1 1 0 0 1 .883-.993L15 0zM5 0a1 1 0 0 1 .117 1.993L5 2H2v16h3a1 1 0 0 1 .993.883L6 19a1 1 0 0 1-.883.993L5 20H1a1 1 0 0 1-.993-.883L0 19V1A1 1 0 0 1 .883.007L1 0zm5 9a1 1 0 1 1 0 2 1 1 0 0 1 0-2M6 9a1 1 0 1 1 0 2 1 1 0 0 1 0-2m8 0a1 1 0 1 1 0 2 1 1 0 0 1 0-2"/>
</svg>
